X:125
T: Hat ökröm van mind sárga...
M: 4/4
L: 1/4
K: Bb
ggfe | dgd2 | 
ggfe | dcB2 | 
dfgf | dBG2 | 
ddcB | AGG2 | 

